src/assets/img/shop.svg

<?xml version="1.0" encoding="UTF-8"?>
<svg fill="none" viewBox="0 0 127 106" xmlns="http://www.w3.org/2000/svg">
    <g clip-path="url(#a)">
        <path d="m126.94 90.294-5.721-72.217h-20.632c-1.4256-9.2442-6.9962-18.078-19.057-18.078s-17.612 8.8333-19.132 18.078h-19.994l-0.2439 3.2308c-1.8111-0.6159-3.7131-0.9253-5.6269-0.9151-9.6596 0-14.33 6.7418-15.793 14.044h-16.112l-4.6328 58.005c-0.15756 1.7329 0.051827 3.4794 0.61462 5.1267 0.5628 1.6473 1.4665 3.1584 2.6526 4.4364 1.1862 1.278 2.6284 2.294 4.2335 2.982 1.6051 0.688 3.3373 1.033 5.0848 1.013h99.803c2.022 0.021 4.027-0.38 5.884-1.178s3.526-1.975 4.897-3.456c1.372-1.4797 2.417-3.23 3.067-5.1372s0.891-3.9289 0.707-5.9346zm-45.41-82.171c7.1274 0 9.8283 5.173 10.822 9.8978h-21.645c0.9941-4.6688 3.7138-9.8418 10.822-9.8418v-0.05602zm-45.016 20.375c0.8941-0.0537 1.7901 0.0688 2.6366 0.3604s1.6268 0.7467 2.2964 1.3391l-0.3376 4.1832h-11.967c0.3571-1.6728 1.2883-3.1694 2.6335-4.2328 1.3453-1.0633 3.0205-1.6269 4.7377-1.5938v-0.0561zm-25.659 66.577c-0.23-0.2488-0.4016-0.5455-0.5021-0.8685-0.1006-0.3231-0.1277-0.6643-0.0793-0.999l3.845-48.555h26.259l-3.695 45.642c-0.1505 1.8503 0.0467 3.7122 0.5814 5.4905h-24.646c-0.3278 0.0145-0.6549-0.0414-0.9591-0.1638-0.3042-0.1225-0.5784-0.3086-0.804-0.5458zm104.77-0.635c-0.418 0.4355-0.923 0.7799-1.481 1.0114-0.559 0.2315-1.159 0.3449-1.764 0.3332h-61.128c-0.6052 0.014-1.2066-0.0984-1.7655-0.33s-1.0628-0.5772-1.4793-1.0146c-0.413-0.4434-0.7268-0.9689-0.9208-1.5419s-0.2637-1.1805-0.2046-1.7823l4.9704-62.823h59.889l4.97 62.823c0.065 0.5991 1e-3 1.205-0.187 1.7779-0.187 0.5728-0.494 1.0998-0.9 1.5463z" fill="#00214D"/>
        <path d="m96.821 42.822h-18.212c-1.0894 0-2.1342 0.4308-2.9045 1.1978-0.7704 0.767-1.2031 1.8073-1.2031 2.892s0.4327 2.125 1.2031 2.892c0.7703 0.767 1.8151 1.1979 2.9045 1.1979h18.212c1.0895 0 2.1343-0.4309 2.9046-1.1979 0.7706-0.767 1.2036-1.8073 1.2036-2.892s-0.433-2.125-1.2036-2.892c-0.7703-0.767-1.8151-1.1978-2.9046-1.1978z" fill="#00214D"/>
        <path d="m96.821 57.893h-18.212c-1.0894 0-2.1342 0.4309-2.9045 1.1979-0.7704 0.767-1.2031 1.8072-1.2031 2.8919s0.4327 2.125 1.2031 2.892c0.7703 0.767 1.8151 1.1979 2.9045 1.1979h18.212c1.0895 0 2.1343-0.4309 2.9046-1.1979 0.7706-0.767 1.2036-1.8073 1.2036-2.892s-0.433-2.1249-1.2036-2.8919c-0.7703-0.767-1.8151-1.1979-2.9046-1.1979z" fill="#00214D"/>
        <path d="m96.821 73.076h-18.212c-1.0894 0-2.1342 0.4309-2.9045 1.1979-0.7704 0.767-1.2031 1.8072-1.2031 2.8919s0.4327 2.125 1.2031 2.892c0.7703 0.767 1.8151 1.1979 2.9045 1.1979h18.212c1.0895 0 2.1343-0.4309 2.9046-1.1979 0.7706-0.767 1.2036-1.8073 1.2036-2.892s-0.433-2.1249-1.2036-2.8919c-0.7703-0.767-1.8151-1.1979-2.9046-1.1979z" fill="#00214D"/>
        <path d="m63.922 44.017c-0.7674 0.7696-1.198 1.8101-1.198 2.8946s0.4306 2.125 1.198 2.8946c0.3786 0.3791 0.8286 0.6798 1.3244 0.885 0.4957 0.2051 1.0273 0.3105 1.5641 0.3103 0.8132 1e-3 1.6085-0.2383 2.285-0.6876 0.6764-0.4493 1.2038-1.0885 1.5151-1.8365 0.3114-0.7479 0.3927-1.5711 0.2338-2.3652-0.159-0.794-0.5511-1.5232-1.1266-2.0952-0.7876-0.7286-1.8229-1.1334-2.8979-1.1334s-2.1103 0.4048-2.8979 1.1334z" fill="#00EBC7"/>
        <path d="m63.922 59.144c-0.7674 0.7696-1.198 1.8102-1.198 2.8947s0.4306 2.125 1.198 2.8946c0.7714 0.7554 1.8067 1.1838 2.8885 1.1952 1.0922-0.0152 2.1378-0.4423 2.926-1.1952 0.7497-0.7799 1.1723-1.8151 1.1817-2.8946-6e-4 -1.0849-0.4322-2.1254-1.2004-2.8947-0.7876-0.7285-1.8229-1.1334-2.8979-1.1334s-2.1103 0.4049-2.8979 1.1334z" fill="#00EBC7"/>
        <path d="m63.922 74.271c-0.5655 0.5743-0.9492 1.3012-1.1037 2.0905-0.1545 0.7894-0.073 1.6066 0.2346 2.3502 0.3075 0.7437 0.8275 1.3811 1.4955 1.8333 0.6679 0.4522 1.4545 0.6992 2.2621 0.7105 1.0914-0.0096 2.1354-0.4455 2.9073-1.2138 0.3816-0.3783 0.6845-0.8279 0.8912-1.3231 0.2066-0.4951 0.313-1.0261 0.313-1.5622 0-0.5362-0.1064-1.0672-0.313-1.5623-0.2067-0.4951-0.5096-0.9448-0.8912-1.3231-0.7876-0.7285-1.8229-1.1334-2.8979-1.1334s-2.1103 0.4049-2.8979 1.1334z" fill="#00EBC7"/>
    </g>
    <defs>
        <clipPath id="a">
            <rect width="127" height="106" fill="#fff"/>
        </clipPath>
    </defs>
</svg>

<svg width="127" height="106" viewBox="0 0 127 106" fill="none" xmlns="http://www.w3.org/2000/svg">
<g clip-path="url(#clip0)">
<path d="M126.944 90.2942L121.223 18.0775H100.591C99.1654 8.83333 93.5948 0 81.5344 0C69.474 0 63.922 8.83333 62.4028 18.0775H42.4084L42.1645 21.3083C40.3534 20.6924 38.4514 20.383 36.5376 20.3932C26.878 20.3932 22.2077 27.135 20.7447 34.4369H4.63286L1.5866e-05 92.4419C-0.157541 94.1748 0.051843 95.9213 0.614635 97.5686C1.17743 99.2159 2.0811 100.727 3.26726 102.005C4.45341 103.283 5.89565 104.299 7.50076 104.987C9.10588 105.675 10.8381 106.02 12.5856 106H112.389C114.411 106.021 116.416 105.62 118.273 104.822C120.13 104.024 121.799 102.847 123.17 101.366C124.542 99.8863 125.587 98.136 126.237 96.2288C126.887 94.3216 127.128 92.2999 126.944 90.2942ZM81.5344 8.12368C88.6618 8.12368 91.3627 13.2967 92.3568 18.0215H70.7119C71.706 13.3527 74.4257 8.1797 81.5344 8.1797V8.12368ZM36.5188 28.4982C37.4129 28.4445 38.3089 28.567 39.1554 28.8586C40.0019 29.1502 40.7822 29.6053 41.4518 30.1977L41.1142 34.3809H29.1476C29.5047 32.7081 30.4359 31.2115 31.7811 30.1481C33.1264 29.0848 34.8016 28.5212 36.5188 28.5543V28.4982ZM10.86 95.0751C10.63 94.8263 10.4584 94.5296 10.3579 94.2066C10.2573 93.8835 10.2302 93.5423 10.2786 93.2076L14.1236 44.6522H40.3827L36.6877 90.2942C36.5372 92.1445 36.7344 94.0064 37.2691 95.7847H12.6231C12.2953 95.7992 11.9682 95.7433 11.664 95.6209C11.3598 95.4984 11.0856 95.3123 10.86 95.0751ZM115.634 94.4401C115.216 94.8756 114.711 95.22 114.153 95.4515C113.594 95.683 112.994 95.7964 112.389 95.7847H51.2614C50.6562 95.7987 50.0548 95.6863 49.4959 95.4547C48.937 95.2231 48.4331 94.8775 48.0166 94.4401C47.6036 93.9967 47.2898 93.4712 47.0958 92.8982C46.9018 92.3252 46.8321 91.7177 46.8912 91.1159L51.8616 28.2928H111.751L116.721 91.1159C116.786 91.715 116.722 92.3209 116.534 92.8938C116.347 93.4666 116.04 93.9936 115.634 94.4401Z" fill="#00214D"/>
<path d="M96.8208 42.8221H78.6083C77.5189 42.8221 76.4741 43.2529 75.7038 44.0199C74.9334 44.7869 74.5007 45.8272 74.5007 46.9119C74.5007 47.9966 74.9334 49.0369 75.7038 49.8039C76.4741 50.5709 77.5189 51.0018 78.6083 51.0018H96.8208C97.9103 51.0018 98.9551 50.5709 99.7254 49.8039C100.496 49.0369 100.929 47.9966 100.929 46.9119C100.929 45.8272 100.496 44.7869 99.7254 44.0199C98.9551 43.2529 97.9103 42.8221 96.8208 42.8221Z" fill="#00214D"/>
<path d="M96.8208 57.8929H78.6083C77.5189 57.8929 76.4741 58.3238 75.7038 59.0908C74.9334 59.8578 74.5007 60.898 74.5007 61.9827C74.5007 63.0674 74.9334 64.1077 75.7038 64.8747C76.4741 65.6417 77.5189 66.0726 78.6083 66.0726H96.8208C97.9103 66.0726 98.9551 65.6417 99.7254 64.8747C100.496 64.1077 100.929 63.0674 100.929 61.9827C100.929 60.898 100.496 59.8578 99.7254 59.0908C98.9551 58.3238 97.9103 57.8929 96.8208 57.8929Z" fill="#00214D"/>
<path d="M96.8208 73.0758H78.6083C77.5189 73.0758 76.4741 73.5067 75.7038 74.2737C74.9334 75.0407 74.5007 76.0809 74.5007 77.1656C74.5007 78.2503 74.9334 79.2906 75.7038 80.0576C76.4741 80.8246 77.5189 81.2555 78.6083 81.2555H96.8208C97.9103 81.2555 98.9551 80.8246 99.7254 80.0576C100.496 79.2906 100.929 78.2503 100.929 77.1656C100.929 76.0809 100.496 75.0407 99.7254 74.2737C98.9551 73.5067 97.9103 73.0758 96.8208 73.0758Z" fill="#00214D"/>
<path d="M63.922 44.0173C63.1546 44.7869 62.724 45.8274 62.724 46.9119C62.724 47.9964 63.1546 49.0369 63.922 49.8065C64.3006 50.1856 64.7506 50.4863 65.2464 50.6915C65.7421 50.8966 66.2737 51.002 66.8105 51.0018C67.6237 51.0028 68.419 50.7635 69.0955 50.3142C69.7719 49.8649 70.2993 49.2257 70.6106 48.4777C70.922 47.7298 71.0033 46.9066 70.8444 46.1125C70.6854 45.3185 70.2933 44.5893 69.7178 44.0173C68.9302 43.2887 67.8949 42.8839 66.8199 42.8839C65.7449 42.8839 64.7096 43.2887 63.922 44.0173Z" fill="#00EBC7"/>
<path d="M63.922 59.1441C63.1546 59.9137 62.724 60.9543 62.724 62.0388C62.724 63.1233 63.1546 64.1638 63.922 64.9334C64.6934 65.6888 65.7287 66.1172 66.8105 66.1286C67.9027 66.1134 68.9483 65.6863 69.7365 64.9334C70.4862 64.1535 70.9088 63.1183 70.9182 62.0388C70.9176 60.9539 70.486 59.9134 69.7178 59.1441C68.9302 58.4156 67.8949 58.0107 66.8199 58.0107C65.7449 58.0107 64.7096 58.4156 63.922 59.1441Z" fill="#00EBC7"/>
<path d="M63.922 74.2709C63.3565 74.8452 62.9728 75.5721 62.8183 76.3614C62.6638 77.1508 62.7453 77.968 63.0529 78.7116C63.3604 79.4553 63.8804 80.0927 64.5484 80.5449C65.2163 80.9971 66.0029 81.2441 66.8105 81.2554C67.9019 81.2458 68.9459 80.8099 69.7178 80.0416C70.0994 79.6633 70.4023 79.2137 70.609 78.7185C70.8156 78.2234 70.922 77.6924 70.922 77.1563C70.922 76.6201 70.8156 76.0891 70.609 75.594C70.4023 75.0989 70.0994 74.6492 69.7178 74.2709C68.9302 73.5424 67.8949 73.1375 66.8199 73.1375C65.7449 73.1375 64.7096 73.5424 63.922 74.2709Z" fill="#00EBC7"/>
</g>
<defs>
<clipPath id="clip0">
<rect width="127" height="106" fill="white"/>
</clipPath>
</defs>
</svg>
